icons/1_Primary/Loket.nl.svg

<svg width="1024" height="1024" viewBox="0 0 1024 1024" fill="none" xmlns="http://www.w3.org/2000/svg">
<g clip-path="url(#clip0_2_2706)">
<path d="M512 1024C794.77 1024 1024 794.77 1024 512C1024 229.23 794.77 0 512 0C229.23 0 0 229.23 0 512C0 794.77 229.23 1024 512 1024Z" fill="#BA6561"/>
<path d="M552.1 261.05C549.588 249.075 546.131 237.318 541.76 225.89C555.7 228.11 568.42 230.48 581.19 233.24C587.215 245.255 592.029 257.841 595.56 270.81C581.24 267.23 567.21 264.09 552.1 261.05ZM554.17 272.45C555.847 283.55 556.54 294.777 556.24 306C571.51 310.12 585.95 314.28 600.9 318.91C601.499 306.882 600.649 294.825 598.37 283C583.68 279.16 569.4 275.76 554.17 272.45ZM541 302C541.206 291.064 540.537 280.129 539 269.3C523.5 266.16 508.38 263.38 492.09 260.71C493.494 270.738 494.339 280.837 494.62 290.96C510.62 294.45 525.6 298 541 302ZM430 278.12C446.88 281.12 462.61 284.18 478.75 287.59C478.23 277.81 477.31 268.3 475.84 258.16C459.25 255.62 442.89 253.39 425.31 251.23C427.21 260.54 428.71 269.23 429.99 278.12H430ZM407.79 249.12C389.79 247.12 371.99 245.31 352.72 243.59C355.94 251.81 358.72 259.37 361.54 267.09C379.54 269.69 396.22 272.31 413.31 275.2C411.77 266.55 410 258.15 407.86 249.11L407.79 249.12ZM273 237.46C278.51 244.61 283.4 251.04 288.27 257.46C307.57 259.73 325.49 262.01 343.77 264.52C340.52 257.11 337.24 249.83 333.56 241.88C313.83 240.28 294.26 238.86 273 237.46ZM550 349.72C564.18 355.02 577.57 360.29 591.45 366.1C595.532 354.632 598.382 342.762 599.95 330.69C585.08 325.79 570.77 321.35 555.62 316.96C554.655 328.016 552.775 338.974 550 349.72ZM494.83 300.83C494.761 310.615 494.197 320.391 493.14 330.12C507.83 334.81 521.67 339.49 535.96 344.61C538.293 334.105 539.851 323.443 540.62 312.71C525.31 308.46 510.52 304.63 494.78 300.82L494.83 300.83ZM433.97 312.59C449.33 316.82 463.73 321 478.58 325.59C479.25 316.05 479.43 306.87 479.25 297.17C463.32 293.47 447.88 290.17 431.34 286.83C432.41 295.65 433.24 304 433.92 312.58L433.97 312.59ZM364.35 274.59C367.04 282.17 369.48 289.25 372 296.59C388.12 300.45 403.23 304.3 418.77 308.42C417.64 300.15 416.42 292.12 414.95 283.6C398.102 280.41 381.217 277.413 364.3 274.61L364.35 274.59ZM534.35 393.59C546.07 400.24 556.99 406.87 568.14 414.16C575.285 402.604 581.53 390.515 586.82 378C573.48 371.86 560.57 366.26 546.89 360.66C543.393 371.899 539.184 382.905 534.29 393.61L534.35 393.59ZM533.35 355.18C519.54 349.74 506.15 344.79 491.91 339.78C490.56 349.6 488.81 358.98 486.64 368.85C499.1 374.8 510.77 380.7 522.64 387.14C526.825 376.712 530.391 366.047 533.32 355.2L533.35 355.18ZM477.8 334.94C463.39 330.08 449.44 325.59 434.54 321.06C435.12 329.65 435.54 337.81 435.81 346.41C449.1 351.89 461.51 357.26 474.2 363.07C475.73 353.55 476.92 344.46 477.8 334.94ZM529 404.71C523.37 416.09 517.24 427.08 510.12 438.84C517.97 446.998 525.279 455.659 532 464.77C542.67 451.45 551.8 439.12 560.18 426.51C550 418.76 539.9 411.73 529 404.71ZM502.08 430.79C508.08 419.5 513.33 408.89 518.08 397.93C506.98 391.1 496.01 384.93 484.23 378.6C481.8 388.53 479.06 398.04 475.96 408.18C485.05 415.266 493.772 422.812 502.09 430.79H502.08ZM502.87 450.48C495.24 462.39 487.31 474.06 478.37 486.61C481.411 497.341 483.42 508.337 484.37 519.45C497.85 504.91 509.81 491.53 521.19 477.96C515.789 468.351 509.668 459.165 502.88 450.48H502.87ZM428.38 753.2C431.9 766.164 436.7 778.746 442.71 790.76C455.52 793.53 468.23 795.9 482.19 798.11C477.816 786.7 474.359 774.959 471.85 763C456.8 759.9 442.77 756.74 428.38 753.2ZM467.81 718C452.816 713.988 437.903 709.681 423.08 705.08C422.507 717.111 423.352 729.167 425.6 741C440.32 744.85 454.6 748.25 469.83 751.57C468.169 740.461 467.493 729.228 467.81 718ZM482.91 722C482.733 732.938 483.425 743.872 484.98 754.7C500.46 757.84 515.59 760.6 531.89 763.29C530.502 753.26 529.657 743.161 529.36 733.04C513.37 729.54 498.41 726 482.91 722ZM545.18 736.39C545.68 746.16 546.6 755.69 548.07 765.81C564.67 768.35 581.02 770.58 598.6 772.74C596.71 763.43 595.21 754.74 593.93 745.85C577.07 742.88 561.32 739.85 545.17 736.41L545.18 736.39ZM610.62 748.8C612.23 757.44 613.99 765.8 616.14 774.86C634.14 776.86 651.92 778.68 671.21 780.41C667.99 772.19 665.21 764.62 662.4 756.91C644.43 754.32 627.72 751.7 610.63 748.8H610.62ZM735.73 766.5C716.42 764.2 698.5 761.95 680.23 759.43C683.49 766.83 686.75 774.12 690.44 782.07C710.19 783.7 729.75 785.13 751 786.52C745.5 779.37 740.61 772.95 735.74 766.51L735.73 766.5ZM474.06 674.26C459.88 668.99 446.49 663.69 432.6 657.88C428.528 669.357 425.685 681.233 424.12 693.31C438.98 698.21 453.28 702.64 468.44 707.04C469.415 695.978 471.295 685.015 474.06 674.26ZM483.45 711.26C498.72 715.5 513.45 719.33 529.24 723.12C529.304 713.334 529.868 703.558 530.93 693.83C516.24 689.15 502.41 684.47 488.1 679.35C485.759 689.866 484.205 700.542 483.45 711.29V711.26ZM590.08 711.37C574.73 707.14 560.38 702.96 545.49 698.37C544.87 707.9 544.63 717.08 544.81 726.79C560.75 730.5 576.17 733.79 592.71 737.13C591.59 728.34 590.77 720 590.08 711.41V711.37ZM652.08 727.37C635.95 723.43 620.85 719.65 605.31 715.53C606.44 723.8 607.65 731.84 609.12 740.35C625.86 743.56 642.21 746.46 659.72 749.35C657 741.85 654.58 734.71 652.06 727.38L652.08 727.37ZM437.19 646C450.52 652.16 463.44 657.75 477.13 663.35C480.621 652.092 484.83 641.069 489.73 630.35C478.236 623.87 466.963 617.006 455.93 609.77C448.785 621.361 442.521 633.471 437.19 646ZM490.68 668.8C504.5 674.24 517.89 679.2 532.12 684.2C533.49 674.38 535.23 665.01 537.42 655.14C524.93 649.19 513.28 643.3 501.36 636.86C497.179 647.282 493.612 657.94 490.68 668.78V668.8ZM589.47 702.95C588.89 694.37 588.47 686.2 588.2 677.61C574.92 672.12 562.45 666.75 549.81 660.93C548.27 670.44 547.09 679.54 546.2 689.06C560.6 693.91 574.55 698.39 589.47 702.93V702.95ZM513.84 585.15C505.984 576.992 498.669 568.33 491.94 559.22C481.27 572.55 472.14 584.87 463.75 597.48C473.98 605.23 484.07 612.25 494.97 619.27C500.58 607.9 506.73 596.9 513.84 585.15ZM521.91 593.15C515.85 604.46 510.65 615.06 505.91 626.04C517 632.84 527.99 639.04 539.75 645.36C542.18 635.43 544.92 625.92 548.02 615.78C538.935 608.703 530.22 601.163 521.91 593.19V593.15ZM545.62 537.31C542.574 526.594 540.565 515.61 539.62 504.51C526.14 519.12 514.15 532.44 502.77 546.01C508.184 555.617 514.305 564.809 521.08 573.51C528.76 561.57 536.68 549.9 545.62 537.34V537.31Z" fill="white"/>
</g>
<defs>
<clipPath id="clip0_2_2706">
<rect width="1024" height="1024" fill="white"/>
</clipPath>
</defs>
</svg>

<svg xmlns="http://www.w3.org/2000/svg" viewBox="0 0 1024 1024">
   <circle cx="512" cy="512" r="512" style="fill:#ac1724"/>
   <path d="M552.1 261.05a231.37 231.37 0 0 0-10.34-35.16c13.94 2.22 26.66 4.59 39.43 7.35a202.5 202.5 0 0 1 14.37 37.57c-14.32-3.58-28.35-6.72-43.46-9.76Zm2.07 11.4a190.51 190.51 0 0 1 2.07 33.55c15.27 4.12 29.71 8.28 44.66 12.91a150.29 150.29 0 0 0-2.53-35.91c-14.69-3.84-28.97-7.24-44.2-10.55ZM541 302a205.22 205.22 0 0 0-2-32.7c-15.5-3.14-30.62-5.92-46.91-8.59a272.91 272.91 0 0 1 2.53 30.25c16 3.49 30.98 7.04 46.38 11.04Zm-111-23.88c16.88 3 32.61 6.06 48.75 9.47-.52-9.78-1.44-19.29-2.91-29.43-16.59-2.54-32.95-4.77-50.53-6.93 1.9 9.31 3.4 18 4.68 26.89Zm-22.21-29c-18-2-35.8-3.81-55.07-5.53 3.22 8.22 6 15.78 8.82 23.5 18 2.6 34.68 5.22 51.77 8.11-1.54-8.65-3.31-17.05-5.45-26.09ZM273 237.46c5.51 7.15 10.4 13.58 15.27 20 19.3 2.27 37.22 4.55 55.5 7.06-3.25-7.41-6.53-14.69-10.21-22.64-19.73-1.6-39.3-3.02-60.56-4.42Zm277 112.26c14.18 5.3 27.57 10.57 41.45 16.38a171.44 171.44 0 0 0 8.5-35.41c-14.87-4.9-29.18-9.34-44.33-13.73a200.86 200.86 0 0 1-5.62 32.76Zm-55.17-48.89a290.11 290.11 0 0 1-1.69 29.29c14.69 4.69 28.53 9.37 42.82 14.49a219.52 219.52 0 0 0 4.66-31.9c-15.31-4.25-30.1-8.08-45.84-11.89Zm-60.86 11.76c15.36 4.23 29.76 8.41 44.61 13 .67-9.54.85-18.72.67-28.42-15.93-3.7-31.37-7-47.91-10.34 1.07 8.82 1.9 17.17 2.58 25.75Zm-69.62-38c2.69 7.58 5.13 14.66 7.65 22 16.12 3.86 31.23 7.71 46.77 11.83-1.13-8.27-2.35-16.3-3.82-24.82a2241.94 2241.94 0 0 0-50.65-8.99Zm170 119c11.72 6.65 22.64 13.28 33.79 20.57A264.84 264.84 0 0 0 586.82 378c-13.34-6.14-26.25-11.74-39.93-17.34a277.68 277.68 0 0 1-12.6 32.95Zm-1-38.41c-13.81-5.44-27.2-10.39-41.44-15.4-1.35 9.82-3.1 19.2-5.27 29.07 12.46 5.95 24.13 11.85 36 18.29a285.91 285.91 0 0 0 10.68-31.94Zm-55.55-20.24c-14.41-4.86-28.36-9.35-43.26-13.88.58 8.59 1 16.75 1.27 25.35 13.29 5.48 25.7 10.85 38.39 16.66 1.53-9.52 2.72-18.61 3.6-28.13Zm51.2 69.77c-5.63 11.38-11.76 22.37-18.88 34.13A260 260 0 0 1 532 464.77c10.67-13.32 19.8-25.65 28.18-38.26-10.18-7.75-20.28-14.78-31.18-21.8Zm-26.92 26.08c6-11.29 11.25-21.9 16-32.86-11.1-6.83-22.07-13-33.85-19.33-2.43 9.93-5.17 19.44-8.27 29.58a337.55 337.55 0 0 1 26.13 22.61Zm.79 19.69c-7.63 11.91-15.56 23.58-24.5 36.13a175.22 175.22 0 0 1 6 32.84c13.48-14.54 25.44-27.92 36.82-41.49a218.34 218.34 0 0 0-18.31-27.48ZM428.38 753.2a202.58 202.58 0 0 0 14.33 37.56c12.81 2.77 25.52 5.14 39.48 7.35A230 230 0 0 1 471.85 763c-15.05-3.1-29.08-6.26-43.47-9.8Zm39.43-35.2a1178.57 1178.57 0 0 1-44.73-12.92A153.37 153.37 0 0 0 425.6 741c14.72 3.85 29 7.25 44.23 10.57a190.68 190.68 0 0 1-2.02-33.57Zm15.1 4a206.45 206.45 0 0 0 2.07 32.7c15.48 3.14 30.61 5.9 46.91 8.59a280.81 280.81 0 0 1-2.53-30.25c-15.99-3.5-30.95-7.04-46.45-11.04Zm62.27 14.39c.5 9.77 1.42 19.3 2.89 29.42 16.6 2.54 32.95 4.77 50.53 6.93-1.89-9.31-3.39-18-4.67-26.89-16.86-2.97-32.61-6-48.76-9.44Zm117.22 20.53Zm-51.78-8.12c1.61 8.64 3.37 17 5.52 26.06 18 2 35.78 3.82 55.07 5.55-3.22-8.22-6-15.79-8.81-23.5-17.97-2.59-34.68-5.21-51.77-8.11Zm125.11 17.7c-19.31-2.3-37.23-4.55-55.5-7.07 3.26 7.4 6.52 14.69 10.21 22.64 19.75 1.63 39.31 3.06 60.56 4.45-5.5-7.15-10.39-13.57-15.26-20.01Zm-261.67-92.24c-14.18-5.27-27.57-10.57-41.46-16.38a172.09 172.09 0 0 0-8.48 35.43c14.86 4.9 29.16 9.33 44.32 13.73a203.37 203.37 0 0 1 5.62-32.78Zm9.39 37c15.27 4.24 30 8.07 45.79 11.86a287.34 287.34 0 0 1 1.69-29.29c-14.69-4.68-28.52-9.36-42.83-14.48a216.88 216.88 0 0 0-4.65 31.94Zm106.63.11c-15.35-4.23-29.7-8.41-44.59-13-.62 9.53-.86 18.71-.68 28.42 15.94 3.71 31.36 7 47.9 10.34-1.12-8.79-1.94-17.13-2.63-25.72Zm62 16c-16.13-3.94-31.23-7.72-46.77-11.84 1.13 8.27 2.34 16.31 3.81 24.82 16.74 3.21 33.09 6.11 50.6 9-2.72-7.5-5.14-14.64-7.66-21.97ZM437.19 646c13.33 6.16 26.25 11.75 39.94 17.35a275.94 275.94 0 0 1 12.6-33 589.462 589.462 0 0 1-33.8-20.58A272 272 0 0 0 437.19 646Zm53.49 22.8c13.82 5.44 27.21 10.4 41.44 15.4 1.37-9.82 3.11-19.19 5.3-29.06-12.49-5.95-24.14-11.84-36.06-18.28a287 287 0 0 0-10.68 31.92Zm98.79 34.15c-.58-8.58-1-16.75-1.27-25.34-13.28-5.49-25.75-10.86-38.39-16.68-1.54 9.51-2.72 18.61-3.61 28.13 14.4 4.85 28.35 9.33 43.27 13.87Zm-75.63-117.8a260.61 260.61 0 0 1-21.9-25.93c-10.67 13.33-19.8 25.65-28.19 38.26 10.23 7.75 20.32 14.77 31.22 21.79 5.61-11.37 11.76-22.37 18.87-34.12Zm8.07 8c-6.06 11.31-11.26 21.91-16 32.89 11.09 6.8 22.08 13 33.84 19.32 2.43-9.93 5.17-19.44 8.27-29.58a335.35 335.35 0 0 1-26.11-22.59Zm23.71-55.84a173.9 173.9 0 0 1-6-32.8c-13.48 14.61-25.47 27.93-36.85 41.5a222.81 222.81 0 0 0 18.31 27.5c7.68-11.94 15.6-23.61 24.54-36.17Z" style="fill:#fff"/>
</svg>
